X: 131
T: Mrs. Kinloch
T: Reel, G
L: 1/16
M: C|
K: G
|: F2| G4d2c2 B2A2G2F2| G2B2d2B2 c2A2A2f2| g4d2g2 e2g2d2g2| e2g2f2a2 b2g2g2:| 
|: a2| b2g2f2g2 e4d2c2| B2d2g2B2 c2A2A2c2| B2d2d2g2 e4e2g2| f2a2d2f2 g4c2:| 
D: Glenn Graham/Rodney MacDonald, Traditionally Rockin', TR1
